lib/brands/icons/jest.svg

<svg xmlns="http://www.w3.org/2000/svg" fill="none" aria-hidden="true" viewBox="0 0 48 48"><g id="jest-Icon"><g id="Group"><path id="Vector" fill="#99425B" d="M38.2574 23.7249C38.2574 21.8743 36.7572 20.3741 34.9065 20.3741C34.7875 20.3741 34.6701 20.3805 34.5544 20.3926L39.1568 6.81833H19.5981L24.1941 20.3808C24.1267 20.3767 24.0589 20.3741 23.9905 20.3741C22.1398 20.3741 20.6396 21.8743 20.6396 23.7249C20.6396 25.2209 21.6199 26.4872 22.973 26.9181C22.2583 28.156 21.3591 29.2709 20.3382 30.2342C18.9499 31.5438 17.3611 32.5369 15.6426 33.1489C13.5967 32.0978 12.6305 29.7604 13.5024 27.7109C13.6007 27.4795 13.7013 27.2449 13.7973 27.0113C15.2796 26.6654 16.384 25.3367 16.384 23.749C16.384 21.8983 14.8838 20.3982 13.0331 20.3982C11.1825 20.3982 9.6822 21.8983 9.6822 23.749C9.6822 24.8838 10.2469 25.8862 11.11 26.4924C10.2806 28.3808 9.06145 30.357 8.68163 32.6475C8.22644 35.3926 8.68016 38.3064 11.0543 39.9519C16.5835 43.7841 22.5855 37.5762 28.9137 36.0157C31.2071 35.4501 33.7246 35.5413 35.7452 34.371C37.2626 33.4921 38.2629 32.0357 38.5468 30.4005C38.8273 28.7852 38.4184 27.1769 37.4781 25.8728C37.9644 25.2912 38.2574 24.5424 38.2574 23.7249Z"/><path id="Vector_2" fill="white" d="M37.7407 30.2605C37.4942 31.6801 36.6174 32.9201 35.3352 33.6628C34.1399 34.3551 32.7075 34.5617 31.1911 34.7804C30.3786 34.8975 29.5386 35.0187 28.7179 35.2211C26.5479 35.7562 24.4461 36.8002 22.4136 37.8098C18.3459 39.8302 14.833 41.5748 11.5207 39.2793C9.0944 37.5976 9.20644 34.4863 9.48911 32.7814C9.75108 31.2018 10.4593 29.7471 11.1442 28.3402C11.2626 28.097 11.3785 27.8583 11.4914 27.6216C11.8309 27.7572 12.1919 27.8498 12.5683 27.8918C11.8711 30.1927 12.9675 32.6946 15.2688 33.8768L15.5838 34.0386L15.9173 33.9199C17.7366 33.2719 19.413 32.2322 20.8999 30.8294C21.8611 29.9226 22.6875 28.9194 23.3667 27.8475C23.5703 27.8782 23.7786 27.8943 23.9906 27.8943C26.1027 27.8943 27.8518 26.3153 28.1224 24.2759C28.987 24.2443 29.9053 24.244 30.7748 24.2756C31.0453 26.3151 32.7945 27.8943 34.9066 27.8943C35.7898 27.8943 36.609 27.6175 37.2838 27.1473C37.7524 28.1064 37.9272 29.1855 37.7407 30.2605ZM13.0332 21.2165C14.4297 21.2165 15.5658 22.3526 15.5658 23.749C15.5658 24.2506 15.4186 24.7183 15.1659 25.1122C14.7448 25.7688 14.0295 26.2188 13.2072 26.2749C13.1497 26.2789 13.0918 26.2816 13.0332 26.2816C12.7221 26.2816 12.4239 26.2248 12.1483 26.1217C11.5907 25.913 11.1261 25.513 10.8339 25.0022C10.6223 24.6323 10.5007 24.2047 10.5007 23.749C10.5007 22.3526 11.6368 21.2165 13.0332 21.2165ZM21.4581 23.725C21.4581 22.4562 22.396 21.4027 23.6147 21.2205C23.7374 21.2021 23.8629 21.1925 23.9906 21.1925C24.8025 21.1925 25.5253 21.5771 25.9889 22.1731C26.1041 22.3211 26.204 22.4818 26.2845 22.6533C26.4373 22.979 26.5231 23.3421 26.5231 23.725C26.5231 23.9275 26.4986 24.1243 26.4535 24.3131C26.2066 25.3463 25.3256 26.136 24.2461 26.2446C24.1621 26.2531 24.0769 26.2575 23.9906 26.2575C23.485 26.2575 23.0139 26.108 22.6181 25.8517C21.9208 25.4 21.4581 24.6157 21.4581 23.725ZM32.0279 20.7135C31.4854 21.2326 31.0819 21.8959 30.881 22.6417C29.9432 22.6065 28.9488 22.6065 28.0164 22.6417C27.8022 21.8468 27.358 21.1455 26.7605 20.6128L29.3809 15.314L32.0279 20.7135ZM20.7397 7.63678H38.0152L33.935 19.6709C33.7581 19.7134 33.5856 19.7668 33.4182 19.8311L29.3874 11.6085L25.3453 19.782C25.1706 19.7218 24.9905 19.6734 24.8062 19.6366L20.7397 7.63678ZM37.4392 23.725C37.4392 23.9789 37.4012 24.224 37.3314 24.4555C37.1651 25.0061 36.8161 25.4779 36.3553 25.8005C35.9444 26.0881 35.4451 26.2575 34.9066 26.2575C33.7373 26.2575 32.7509 25.4606 32.461 24.3815C32.4047 24.172 32.3741 23.952 32.3741 23.725C32.3741 23.3788 32.4441 23.0487 32.5704 22.748C32.6354 22.593 32.7166 22.4465 32.8098 22.3088C33.2656 21.6362 34.0347 21.1925 34.9066 21.1925C34.9866 21.1925 35.0655 21.1966 35.1436 21.2039C36.4293 21.3237 37.4392 22.4084 37.4392 23.725ZM39.0759 23.725C39.0759 21.6895 37.6094 19.9911 35.6777 19.6283L40.2985 6H18.4568L23.0846 19.656C21.2199 20.0709 19.8213 21.7372 19.8213 23.725C19.8213 25.2176 20.6102 26.5287 21.7923 27.2654C21.2237 28.1126 20.5493 28.9098 19.7767 29.6388C18.5512 30.795 17.1859 31.6717 15.714 32.2486C14.2315 31.3174 13.6048 29.5612 14.2557 28.0312L14.3067 27.9113C14.3386 27.8364 14.3705 27.7614 14.4023 27.6863C16.0307 27.1184 17.2025 25.5685 17.2025 23.749C17.2025 21.45 15.3322 19.5797 13.0332 19.5797C10.7343 19.5797 8.86394 21.45 8.86394 23.749C8.86394 24.9094 9.3409 25.9603 10.1085 26.7169C9.96942 27.0134 9.82293 27.3149 9.67259 27.6237C8.97074 29.0653 8.17526 30.6992 7.87442 32.5136C7.27691 36.117 8.24073 38.9975 10.5883 40.6245C12.0129 41.6118 13.4595 42 14.9153 42C17.6566 42 20.4295 40.6228 23.1417 39.2757C25.0949 38.3055 27.1147 37.3023 29.1098 36.8103C29.8521 36.6272 30.616 36.517 31.4247 36.4004C33.0284 36.169 34.6867 35.9299 36.1555 35.0792C37.8582 34.0929 39.0237 32.4386 39.3533 30.5406C39.6362 28.9111 39.2958 27.2789 38.4653 25.8949C38.8524 25.2623 39.0759 24.5193 39.0759 23.725Z"/></g></g></svg>

<svg xmlns="http://www.w3.org/2000/svg" fill="none" aria-hidden="true" viewBox="0 0 48 48"><path fill="#99425B" d="M38.258 23.725a3.35 3.35 0 0 0-3.704-3.332l4.603-13.575H19.598l4.596 13.563a3.35 3.35 0 0 0-1.221 6.537 14.633 14.633 0 0 1-2.635 3.316c-1.388 1.31-2.977 2.303-4.695 2.915-2.046-1.051-3.012-3.389-2.14-5.438.098-.232.198-.466.294-.7a3.351 3.351 0 1 0-2.687-.519c-.83 1.889-2.048 3.865-2.428 6.155-.456 2.745-.002 5.66 2.372 7.305 5.53 3.832 11.531-2.376 17.86-3.936 2.293-.566 4.81-.475 6.831-1.645 1.518-.879 2.518-2.335 2.802-3.97.28-1.616-.128-3.224-1.069-4.528a3.34 3.34 0 0 0 .78-2.148Z"/><path fill="#fff" d="M37.74 30.26c-.246 1.42-1.123 2.66-2.405 3.403-1.195.692-2.627.899-4.144 1.117-.812.117-1.652.239-2.473.441-2.17.535-4.272 1.58-6.305 2.589-4.067 2.02-7.58 3.765-10.892 1.47-2.427-1.682-2.315-4.794-2.032-6.499.262-1.58.97-3.034 1.655-4.44.118-.244.235-.483.347-.72.34.136.7.229 1.077.27-.697 2.302.4 4.804 2.7 5.986l.316.162.333-.12c1.82-.647 3.496-1.687 4.983-3.09a15.54 15.54 0 0 0 2.467-2.982 4.175 4.175 0 0 0 4.756-3.572 37.117 37.117 0 0 1 2.652 0 4.175 4.175 0 0 0 4.132 3.62 4.14 4.14 0 0 0 2.377-.748c.468.96.643 2.039.457 3.114Zm-24.707-9.044a2.535 2.535 0 0 1 2.533 2.533 2.533 2.533 0 0 1-3.418 2.373 2.547 2.547 0 0 1-1.314-1.12 2.517 2.517 0 0 1-.333-1.253 2.535 2.535 0 0 1 2.532-2.532Zm8.425 2.509a2.536 2.536 0 0 1 2.533-2.533c.811 0 1.534.385 1.998.981a2.517 2.517 0 0 1 .465 2.14 2.538 2.538 0 0 1-2.463 1.945 2.533 2.533 0 0 1-2.533-2.532Zm10.57-3.012a4.174 4.174 0 0 0-1.147 1.929 38.867 38.867 0 0 0-2.865 0 4.178 4.178 0 0 0-1.256-2.03l2.62-5.298 2.648 5.4ZM20.74 7.637h17.275l-4.08 12.034c-.177.042-.35.096-.517.16l-4.03-8.223-4.043 8.174a4.145 4.145 0 0 0-.539-.145l-4.066-12Zm16.7 16.088a2.526 2.526 0 0 1-1.085 2.075c-.41.288-.91.457-1.448.457a2.537 2.537 0 0 1-2.533-2.532 2.517 2.517 0 0 1 .436-1.416 2.53 2.53 0 0 1 4.63 1.416Zm1.636 0a4.175 4.175 0 0 0-3.398-4.097L40.298 6H18.457l4.627 13.656a4.176 4.176 0 0 0-3.263 4.069 4.17 4.17 0 0 0 1.971 3.54 13.973 13.973 0 0 1-2.015 2.374c-1.226 1.156-2.591 2.033-4.063 2.61-1.482-.932-2.11-2.688-1.458-4.218l.05-.12.096-.225a4.176 4.176 0 0 0 2.8-3.937c0-2.299-1.87-4.17-4.169-4.17a4.174 4.174 0 0 0-4.17 4.17c0 1.16.478 2.211 1.245 2.968-.139.296-.285.598-.435.907-.702 1.441-1.498 3.075-1.799 4.89-.597 3.603.367 6.483 2.714 8.11C12.013 41.612 13.46 42 14.915 42c2.742 0 5.515-1.377 8.227-2.724 1.953-.97 3.973-1.974 5.968-2.466.742-.183 1.506-.293 2.315-.41 1.603-.231 3.262-.47 4.73-1.32 1.703-.987 2.869-2.641 3.198-4.54.283-1.629-.057-3.261-.888-4.645.387-.633.61-1.376.61-2.17Z"/></svg>
